X: 1
T: Paddy Joe's Highland
M: 4/4
L: 1/8
R: barndance
K: Fmaj
|: F2 F>F A>FC>F | B2 B>B (3def c>B |1 A>FA>F B>AG>E | F>DD>E F>CA,>C :|
2 A>FA>A B>AG>F | E>CD>E F2 F2 ||
|: (3def c>f (3def c>f | f>g (3agf d3 e | f>ga>g f>ed>c |1 B>cd>e f2 f2 :|
2 B>cd>e f>dc>A ||
